X:1
T:Cum audisset Joannes - Cardoso
T:#
%%score 1 2 3
L:1/8
Q:1/4=200
M:none
K:Bb
V:1 treble nm="Soprano"
V:2 treble nm="Alto"
V:3 treble-8 nm="Tenor"
V:1
"^Cum audisset Joannes""^Manuel Cardoso\n (1566-1650)""^Matthew 11: 2-3" z16 | z16 | G12 A4 | %3
w: ||Cum au-|
 B8 A4 =B4 | c8 _B4 A4 | (G2 A2 B2 c2 d4) d4 |[M:4/2] G4 G6 G2 F4 | B8 A4 A4- | %8
w: dis- set Jo-|an- nes in|vin\- * * * * cu-|lis o- pe- ra|Chri- sti, o\-|
 A2 A2 G4 (A2 B2 c4- | c2 B2 A4) G8 | z8 z4 d4- | d2 d2 c4 B8 | A8 z4 A4- | A4 =B4 c8 | %14
w: * pe- ra Chri\- * *|* * * sti,|o\-|* pe- ra Chri-|sti, cum|* au- dis-|
 =B4 ^c4 d8 | =c4 _B4 (A2 B2 c2 A2 | B2 c2 d6 c2 B4-) | (B4 A2 G2 F4) G4 | (A8 G8) | z16 | %20
w: set Jo- an-|nes in vin\- * * *||* * * * cu-|lis *||
 z4 A6 A2 G4 | (G8 A8) | G8 z4 G4- | G2 G2 F4 =E8 | D4 d8 =B4 | c4 G4 A4 c4 | (_B4 A2 G2 A4) G4 | %27
w: o- pe- ra|Chri\- *|sti, o\-|* pe- ra Chri-|sti, mit- tens|du- os de di-|sci\- * * * pu-|
 G4 B4 A4 (G4- | G4 ^F2 =E2 F2 D2 G4-) | (G2 A2 B4) A4 (A4- | A2 G2 G8 ^F2 =E2 | ^F8) G8- | G8 z8 | %33
w: lis su- is, su\-||* * * is, su\-||* is,||
 z16 | z4 G8 =E4 | ^F4 F4 G4 B4 | (A2 G2 G8) ^F4 | G4 (B6 A2 G4- | G2 ^F=E F4) G4 B4- | %39
w: |mit- tens|du- os de di-|sci\- * * pu-|lis su\- * *|* * * * is, a\-|
 B4 A4 (A8- | A4 G2 =F2 G8) | F8 F4 A4 | B4 B4 G4 G4- | G4 ^F4 G8 | z8 z4 G4 | B4 A4 G8 | %46
w: * it il\-||* li: Tu|es, qui ven- tu\-|* rus es,|an|a- li- um|
 z4 d8 c4 | (d6 c2 =B4 c4) | G16 | z8 z4 G4 | B4 A4 G4[Q:1/4=198] B4 | %51
w: ex- pec-|ta\- * * *|mus,|an|a- li- um ex-|
[Q:1/4=195] A8[Q:1/4=190] G8 |[Q:1/4=185] G8[Q:1/4=182] G4[Q:1/4=179] G4 |[Q:1/4=174] G16 | %54
w: pec- ta-|mus. ex- pec-|ta-|
[Q:1/4=170] G16 |] %55
w: mus?|
V:2
 G,12 A,4 | B,8 A,4 =B,4 | C8 _B,4 A,4 | (G,2 A,2 B,2 C2 D2 C2 F4- | F4) =E4 D8 | z4 G6 G2 F4- | %6
w: Cum au-|dis- set Jo-|an- nes in|vin\- * * * * * *|* cu- lis|o- pe- ra|
[M:4/2] F4 =E4 D8 | z4 G6 G2 F4 | (F4 =E2 D2) C8 | z8 D8- | D4 =E4 F8 | =E4 ^F4 G8 | %12
w: * Chri- sti,|o- pe- ra|Chri\- * * sti,|cum|* au- dis-|set Jo- an-|
 =F4 =E4 (D2 E2 F2 G2 | A2 F2 G6 F2 =E4) | D4 =E4 (F4 E2 D2 | =E2 C2 D2 E2 F8 | D6 =E2 ^F4) G4 | %17
w: nes in vin\- * * *||cu- lis o\- * *||* * * pe-|
 =E4 (F6 E2 D4) | C4 C6 C2 B,4 | A,4 G,4 z4 D4- | D2 C2 C4 (C4 B,4 | E8) C4 (F2 =E2 | %22
w: ra Chri\- * *|sti, o- pe- ra|Chri- sti, o\-|* pe- ra Chri\- *|* sti, o\- *|
 D2 C2 B,4) A,4 G,4 | (A,6 B,2 C6 B,2 | A,2 G,2 A,4) G,4 G4- | G4 =E4 F4 C4 | D4 F4 (F4 =E2 D2 | %27
w: * * * pe- ra|Chri\- * * *|* * * sti, mit\-|* tens du- os|de di- sci\- * *|
 =E2 F2 G4) F4 E4 | D8 D4 D4 | =E4 G4 F4 E4 | D8 D8 | z4 D8 =B,4 | C4 G,4 A,4 C4 | %33
w: * * * pu- lis|su- is, de|di- sci- pu- lis|tu- is,|mit- tens|du- os de di-|
 (B,4 A,2 B,2 C2 A,2 D4- | D4 ^C2 =B,2 C8) | (D6 C2 B,4) G,4 | A,4 =B,4 C4 A,4 | %37
w: sci\- * * * * *||* * * pu-|lis su- is, de|
 G,4 (G,2 A,2 _B,2 C2 D4) | C4 C4 D8 | D8 z4 F4- | F4 =E4 D8 | D8 z8 | z4 D8 E4 | E4 D4 D4 C4 | %44
w: di- sci\- * * * *|pu- lis su-|is, a\-|* it il-|li:|Tu es,|qui ven- tu- rus|
 D4 F4 F4 =E4 | D12 G,4 | B,4 A,4 G,4 G4- | G4 ^F4 (G2 =F2 =E2 D2) | (=E2 C2 F6 ED E4) | %49
w: es, an a- li-|um, an|a- li- um ex\-|* pec- ta\- * * *||
 D4 D8 ^C4 | (D6 C2 B,2 C2 D2 B,2 | E4 D2 C2 E4) D4 | z4 E8 D4 | E16 | D16 |] %55
w: mus, ex- pec-|ta\- * * * * *|* * * * mus,|ex- pec-|ta-|mus?|
V:3
 z16 | z16 | z16 | z16 | G12 A4 | B8 A4 =B4 |[M:4/2][K:treble-8] c8 _B4 A4 | (G2 A2 B2 c2 d6 c2 | %8
w: ||||Cum au-|dis- set Jo-|an- nes in|vin\- * * * * *|
 B8 A6) A2 | G4 c6 c2 B4 | (A4 G4) A8 | z8 z4 d4- | d2 d2 c4 (f6 =e2 | d8) c8 | z8 z4 A4- | %15
w: * * cu-|lis o- pe- ra|Chri\- * sti,|o|* pe- ra Chri\- *|* sti,|o\-|
 A2 A2 G4 (F2 G2 A2 F2 | G2 A2 B2 c2 d8-) | (d4 ^c4) d8 | z8 d8- | d4 =e4 f8 | =e4 c4 d8 | %21
w: * pe- ra Chri\- * * *||* * sti|cum|* au- dis-|set Jo- an-|
 c4 B4 (A2 B2 c2 A2 | B2 c2 d8) ^c4 | d4 A6 A2 G4- | G4 ^F4 G8- | G8 z8 | z4 d8 =B4 | c4 G4 A4 c4 | %28
w: nes in vin\- * * *|* * * cu-|lis o- pe- ra|* Chri- sti,||mit- tens|du- os de di-|
 (B4 A2 G2 A4) G4 | G8 c8 | F4 (B8 A2 G2 | A8 G8) | C4 c8 e4 | (d4 c2 B2 A8) | G16 | z4 d8 B4 | %36
w: sci\- * * * pu-|lis su-|is, su\- * *||is, mit- tens|du\- * * *|os,|mit- tens|
 c4 G4 A4 c4 | (B6 c2 d4) B4 | A4 A4 G8 | z4 d8 c4 | (c8 B8) | A4 A4 d4 d4- | d4 B4 B6 B2 | %43
w: du- os de di-|sci\- * * pu-|lis su- is,|a- it|il\- *|li: Tu es, qui|* ven- tu- rus|
 A8 z4 G4 | B4 A4 A4 G4- | G4 ^F4 (G2 A2 B2 c2 | d6 c2 B4 A2 G2 | B4 A4) G8 | z8 z4 G4 | %49
w: es, an|a- li- um ex\-|* pec- ta\- * * *||* * mus,|an|
 B4 A4 A4 G4- | G4 ^F4 G8 | C4 c8 =B4 | c8 G4 d4- | d4 c4 c8 | =B16 |] %55
w: a- li- um ex\-|* pec- ta-|mus, ex- pec-|ta- mus, ex\-|* pec- ta-|mus?|

